public/src/images/icons/decks.svg

<svg width="25" height="17" viewBox="0 0 25 17" fill="none" xmlns="http://www.w3.org/2000/svg">
<path opacity="0.5" d="M6 10.5V13C6 15.2091 7.79086 17 10 17L21 17C23.2091 17 25 15.2091 25 13V8C25 5.79086 23.2091 4 21 4L15.5 4" fill="white"/>
<path d="M21.5 4.5C21.5 2.29086 19.7091 0.5 17.5 0.5L4.5 0.5C2.29086 0.5 0.5 2.29086 0.5 4.5L0.5 10.5C0.5 12.7091 2.29086 14.5 4.5 14.5L17.5 14.5C19.7091 14.5 21.5 12.7091 21.5 10.5V4.5Z" fill="white"/>
</svg>

<svg width="25" height="17" fill="none" xmlns="http://www.w3.org/2000/svg"><path opacity=".5" d="M6 10.5V13a4 4 0 004 4h11a4 4 0 004-4V8a4 4 0 00-4-4h-5.5" fill="#fff"/><path d="M21.5 4.5a4 4 0 00-4-4h-13a4 4 0 00-4 4v6a4 4 0 004 4h13a4 4 0 004-4v-6z" fill="#fff"/></svg>
